X:1
T:43
L:1/8
M:4/4
K:C
V:1 treble nm="Piano" snm="Pno."
V:1
 E3 G AG FE | C2 D2 E2 G2 | A3 G F2 E2 | D2 EC D4 | E3 G A2 E2 | G2 EG A2 A2 | G2 c2 G2 DE | C8 |] %8

